X: 09116
T: UNCLE RALPH'S HORNPIPE
C: Bob McQuillen 30 Jun 1993
B: Bob's Note Book 9 p. 116
R: hornpipe, reel
Z: 2017 John Chambers <jc:trillian.mit.edu>
L: 1/8
M: none
N: The meter is missing; should probably be C.
K: D
AG |\
FDFA d2fa | gfed B2AG | FDFA defg | f2e2 edcB |
ABAF A2de | fded B2ef | gfed efga | f2d2d2 :|
|: FG |\
A2dc d2AG | FGAF DEFG | A2dc dBAG | F2ED EGFG |
A2AF DFAd | B2BG EGBe | cdcB Aceg | f2d2d2 :|
%%begintext align
%% We all had such a good time at the Ralph Page Legacy Weekend just past.
%% Many thanks especially to Sylvia Miskoe for the musical arrangements
%% so much enjoyed by all concerned, especially the ones producing it!
%% I thought perhaps Ralph might have liked this little ditty;
%% maybe sometimes Ted Sanella will call a dance in memoriam
%% and use this for the music. (that is, if he likes it!)
%%endtext

%%sep 1 1 500

%%sep 1 1 500

